X:1
T:BEAUTY CONCEALED.
T:César Antonovich Cui (1835-1918)
T:F.Sollogoub, translated by Rosa Newmarch.
T:BEAUTY CONCEALED. 
T:Copyright © CPDL
T:(Op.59  No. 3.)
T:Copyright © CPDL
T:Copyright © CPDL
T:Copyright © CPDL
T:Copyright © CPDL
C:César Antonovich Cui (1835-1918)
Z:F.Sollogoub, translated by Rosa Newmarch.
Z:Copyright © CPDL
%%score [ 1 2 3 4 ]
L:1/8
Q:1/4=69
M:3/4
K:F
V:1 treble nm="Soprano" snm="S."
V:2 treble nm="Alto" snm="A."
V:3 treble-8 transpose=-12 nm="Tenor" snm="T."
V:4 bass nm="Bass" snm="B."
V:1
"^Andantino mosso" z6 | z6 | z6 |!p! ^CE GG FE |!<(! (F2 A)d e!<)!^c |!mf! A3 B A2 |!f! ff ed cd | %7
w: |||Where en- wrapp'd in sleep the|for- * est sighs the|for- est sighs,|There a mute, un- trod- den|
 e3 c c2 |!pp! _ee dc Bc | d3 B B2 | z6 |!p! (d2 c2) B2 | A4 z2 ||!p! GG EE GG | E3 F E2 | %15
w: val- ley lies,|Spell- bound by the tem- pest's|pow'rs, and lost||'mid _ dark|woods.|There the ranks of gnarl- ed|wil- lows grow,|
!<(! AA FF A!<)!A | F3 G F2 |!mf! BB GG Ac | B3 A G2 |!<(! dd BB ce | d3 e!<)! c2 |!f! ff d2 c2 | %22
w: By the mar- gin of a|slug- gish stream,|There the pal- lid lil- ies|bloom and dream,|Where the si- lent, wind- ing|wa- ters flow.|There the stunt- ed|
 AB AF F2 |!mf! dd B2 A2 | FG FD D2 |!p! EF AG EF | A3 G G2 | ^CD FE CD | F3 E E2 | %29
w: sil- ver birch- es stand,|Scat- ter'd o'er the|wild and marsh- y heath,|Yon- der, shut- ting in the|lone- ly land,|spreads a for- est, dark and|sad as death,|
"^poco ritenuto"!>(! E6 | E2 A4-!>)! | A4 z2 ||"^Tempo I." z6 | z6 | z6 |!p! ^CE G2 FE | %36
w: sad|as death.|_||||But such spots bear no|
!<(! FF Ad e!<)!^c |!mf! A3 B A2 |!f! ff ed cd |!>(! e3 c!>)! c2 |!mf! _ee dc Bc | %41
w: mes- sage to the soul that's|lost in care;|On- ly Na- ture's true a-|dept may guess|All their strange and se- cret|
!>(! d3 ^G!>)! G2 |!p! AA =Bd e^c | a4- a z |!>(! A3 A A!>)!B |!p! A4!<(! (A!<)!B) | %46
w: love- li- ness,|Na.- ture's true a- dept may|guess _|All their strange and|se- cret _|
!p!!<(! A4!<)! B2 |!>(! A6-!>)! | A6- |!pp! A6 || %50
w: love- li-|ness.|_||
V:2
 z6 | z6 |!p! A,=B, DB, ^CE | A3 B A2 |!<(! AA F2!<)! E2 |!mf! ^CE (G2 F)E |!f! F2 F2 F2 | %7
w: ||Where en- wrapp'd in sleep the|for- est sighs,|still as tho' be-|numb'd by win- * ter|frost, There a|
 E3 F G2 |!pp! _E4 E2 | D3 _E F2 | z6 |!p! D4 (DE) | ^C4 z2 ||!p! D2 ^C2 DD | ^C3 D C2 | %15
w: val- ley lies,|Lost a|'mid dark woods||'mid dark *|woods.|There the ranks of|wil- lows grow,|
!<(! E2 D2!<)! E2 | (D3 ^C) D2 |!mf! F2 E2 E2 | FF DD EG |!<(! G2 G2 G2 | G3 G!<)! G2 | %21
w: guard- ing a|slug- gish stream,|There bloom and|dream the pal- lid lil- ies|Where the still|wa- ters flow.|
!f! F2 F2 A2 | F4 F2 |!mf! D4 FF | F3 D D2 |!p! D4 D2 | D4 D2 | G4 ^CD | ^C4 C2 | %29
w: There sil- ver|birch- es|stand on the|marsh- y heath,|There a|for- est|spreads, dark and|sad as|
"^poco ritenuto"!>(! ^C6 | E2 A,4-!>)! | A,4 z2 || z6 | z6 |!p! A,=B, DB, ^CE | A3 B A2 | %36
w: sad|as death.|_|||But such spots no friend- ly|mes- sage bear|
!<(! AA F2 E2!<)! |!mf! ^CE GG (FE) |!f! F2 F2 F2 |!>(! E3 F!>)! G2 |!mf! _E2 E2 E2 | %41
w: To the soul that's|lost in world- ly care; *|Na- ture's a-|dept may guess|All their strange|
!>(! D3 C!>)! D2 |!p! F4 E2 | F4 E^C |!>(! F3 F E!>)!G |!p! F4!<(! (E!<)!G) |!p!!<(! F4!<)! G2 | %47
w: love- li- ness,|love- li-|ness, All their|strange, their strange and|se- cret _|love- li-|
!>(! F6-!>)! | F6- |!pp! F6 || %50
w: ness.|_||
V:3
!p! A4 A2 | A4 A2 | A4 A2 | A3 A A2 |!<(! A=B dB ^c!<)!e |!mf! g>A A4 |!f! AA c=B AB | c3 d e2 | %8
w: Where en-|wrapp'd in|sleep the|for- est sighs,|still as tho' be- numb'd by|win- ter frost,|There a mute un- trod- den|val- ley lies,|
!pp! GG BA GA | B3 c d2 |!p! (f2 d2) c2 | B2 A2 G2 | A4 z2 ||!p! B2 A2 BB | A3 ^G A2 | %15
w: Spell- bound by the tem- pest's|pow'rs, and lost,|lost _ a|mid the dark|woods.|There the ranks of|wil- lows grow,|
!<(! ^c2 d2!<)! c2 | (d3 ^c) d2 |!mf! d2 =c2 c2 | d4 d2 |!<(! d2 f2 e2 | (de) (fg)!<)! e2 | %21
w: guard- ing a|slug- gish stream,|There bloom the|lil- ies|Where the still|wa- * ters * flow.|
!f! ^cc dd ee | f3 f d2 |!mf! AA BB ^cc | d3 B B2 |!p! BA B2 B2 | B4 B2 | G4 GF | G6- | %29
w: There the stunt- ed sil- ver|birch- es stand|Scat- ter'd o'er the wild and|marsh- y heath,|shut- ting in the|lone- ly|land, dark and|sad|
"^poco ritenuto"!>(! G2 E2 A2- | A6-!>)! | A4 z2 ||!p! A4 A2 | A4 A2 | A4 A2 | A3 A A2 | %36
w: _ as death.|_||But such|spots no|friend- ly|mes- sage bear|
!<(! A=B dB ^c!<)!e |!mf! g>A A4 |!f! AA c=B AB |!>(! c3 d!>)! e2 |!mf! GG BA GA | %41
w: To the soul that's lost in|world- ly care;|On- ly Na- ture's true a-|dept may guess|All their strange and se- cret|
!>(! B3 c!>)! d2 |!mf!!<(! A=B dB ^c!<)!e |!p! d3 A A2 |!>(! A=B dB ^c!>)!c | %45
w: love- li- ness,|on- ly Na- ture's true a-|dept may guess|all their strange and se- cret|
!p!!<(! A=B d2!<)! ^cc |!p!!<(! A2 d2!<)! ^c2 |!>(! A2 =B2 d2 | =B3 A A2-!>)! |!pp! A6 || %50
w: love- li- ness, on- ly|such may guess|all their strange|love- li- ness.|_|
V:4
!p! D,4 D,2 | D,4 D,2 | D,4 D,2 | D,3 D, D,2 |!<(! D,4!<)! D,2 |!mf! D,4 D,2 |!f! D,2 G,2 G,2 | %7
w: Where en-|wrapp'd in|sleep the|for- est sighs,|still as|tho' be|numb'd by frost,|
 C,G, C2!>(! (C!>)!G,) |!pp! C,2 F,3 F, | B,,F, B,2 z2 | z6 | z6 | z6 ||!p! E,2 A,2 E,E, | %14
w: There a val- ley _|lies, lost a|'mid dark woods.||||There the ranks of|
 A,3 ^G, A,2 |!<(! F,2 B,2!<)! F,2 | (B,3 A,) B,2 |!mf! G,2 C2 A,2 | (G,3 A,) B,2 |!<(! B,2 D2 C2 | %20
w: wil- lows grow,|guard- ing a|slug- gish stream,|There bloom the|lil- * ies|By the stream's|
 B,4 (C!<)!B,) |!f! A,A, B,B, CC | ^C4 DA, |!mf! F,F, G,G, A,A, | B,3 B, B,2 |!p! B,A, G,2 (G,F,) | %26
w: mar- gin. *|There the stunt- ed sil- ver|birch- es stand|Scat- ter'd o'er the wild and|marsh- y heath,|shut- ting in a _|
 E,4 E,2 | E,D, ^C,2 B,,2 | A,,6- |"^poco ritenuto"!>(! A,,4 A,,2 | A,,6-!>)! | A,,4 z2 || %32
w: lone- ly|land, a for- est|sad|_ as|death.|_|
!p! D,4 D,2 | D,4 D,2 | D,4 D,2 | D,3 D, D,2 |!<(! D,4!<)! D,2 |!mf! D,4 D,2 |!f! D,2 G,2 G,2 | %39
w: But such|spots no|friend- ly|mes- sage bear|To souls|lost in|care; Na- ture's|
!>(! C,G, C2 (C!>)!G,) |!mf! C,2 F,2 F,2 |!>(! B,,F,!>)! B,4 |!p! A,6 | %43
w: true a- dept may _|guess their strange|love- li- ness.|Ah!|
!mf!!<(! A,,=B,, D,B,, ^C,!<)!E, |!>(! A,3 A,!>)! A,2 |!p! D,6 |!<(! D,6!<)! |!>(! D,6-!>)! | %48
w: Na- ture's true a- dept may|guess all their|love-|li-|ness.|
 D,6- |!pp! D,6 || %50
w: _||

